static/logos/honda-wordmark-color.svg

<svg width="56" height="44" viewBox="0 0 56 44" fill="none" xmlns="http://www.w3.org/2000/svg">
<g clip-path="url(#clip0_1204_67)">
<path fill-rule="evenodd" clip-rule="evenodd" d="M7.25478 38.3346L8.07322 38.4209C8.46103 38.4644 8.46103 38.7659 8.46103 38.9814V39.9721H4.66962V38.9814C4.66962 38.7662 4.71279 38.4644 5.10059 38.4209L5.91904 38.3346V37.5161H1.00771V38.3346L1.82649 38.4209C2.17113 38.4644 2.21396 38.7659 2.21396 38.9814V42.1695C2.21396 42.3853 2.17113 42.6871 1.82649 42.7299L1.00771 42.8163V43.6347H5.91937V42.8163L5.10093 42.7299C4.71312 42.6871 4.66996 42.3856 4.66996 42.1695V41.2219H8.46136V42.1695C8.46136 42.3853 8.46136 42.6871 8.07355 42.7299L7.25511 42.8163V43.6347H12.1664V42.8163L11.348 42.7299C11.0034 42.6871 10.9602 42.3856 10.9602 42.1695V38.9814C10.9602 38.7662 11.0034 38.4644 11.348 38.4209L12.1664 38.3346V37.5161H7.25478V38.3346ZM40.1283 37.5161H34.0533V38.3346L34.786 38.4209C35.044 38.4644 35.2167 38.5507 35.2167 38.9385V42.1692C35.2167 42.385 35.1738 42.6868 34.786 42.7296L33.9669 42.8159V43.6344H40.1283C42.3254 43.6344 44.1352 42.7731 44.1352 40.5754C44.1356 38.3781 42.3254 37.5161 40.1283 37.5161ZM39.6977 42.4706H37.6295V38.6796H39.6977C40.9039 38.6796 41.2918 39.24 41.2918 40.5751C41.2918 41.9108 40.9039 42.4706 39.6977 42.4706Z" fill="#C23C40"/>
<path fill-rule="evenodd" clip-rule="evenodd" d="M54.519 42.7293C54.1312 42.6864 54.0014 42.4278 53.8726 42.2551L51.0291 37.9039C50.8139 37.6025 50.6841 37.5161 50.3826 37.5161H45.7296V38.3346L46.8067 38.4644C46.9794 38.4644 47.1945 38.6796 47.0219 38.9814L44.9112 42.3853C44.8248 42.5145 44.7385 42.6868 44.4799 42.7296L43.6614 42.8159V43.6344H47.5823V42.8159L46.9359 42.7731C46.6344 42.7296 46.4617 42.5145 46.6344 42.299L46.9359 41.7813H50.7276L50.9863 42.2126C51.2442 42.557 50.9428 42.7296 50.6413 42.7296L49.952 42.8159V43.6344H55.2943V42.8159L54.519 42.7293ZM47.582 40.6614L48.7454 38.8087L49.9945 40.6614H47.582ZM29.6157 38.3346L30.4777 38.4209C30.822 38.4644 30.8655 38.7659 30.8655 38.9814V42.0403L27.6339 37.7751C27.4615 37.5593 27.3324 37.5165 26.9877 37.5165H22.7654V38.3349L23.5838 38.4212C23.9716 38.4647 24.0148 38.7662 24.0148 38.9817V42.1698C24.0148 42.3856 23.9716 42.6874 23.5838 42.7303L22.7654 42.8166V43.635H26.6859V42.8166L25.8672 42.7303C25.5225 42.6874 25.4794 42.386 25.4794 42.1698V39.1109L28.711 43.3767C28.8836 43.5919 29.0124 43.6347 29.3568 43.6347H32.33V38.9817C32.33 38.7665 32.3729 38.4647 32.7607 38.4212L33.5791 38.3349V37.5165H29.6154L29.6157 38.3346ZM17.4659 37.301C13.459 37.301 12.4251 39.0674 12.4251 40.5751C12.4251 42.1263 13.459 43.8499 17.4659 43.8499C21.4728 43.8499 22.5071 42.1263 22.5071 40.5751C22.5067 39.0674 21.4728 37.301 17.4659 37.301ZM17.4659 42.6864C15.915 42.6864 15.2686 42.04 15.2686 40.5751C15.2686 39.1102 15.9147 38.4644 17.4659 38.4644C19.0171 38.4644 19.6633 39.1102 19.6633 40.5751C19.6633 42.04 19.0171 42.6864 17.4659 42.6864ZM15.3117 36.3527L12.3388 33.5952L27.3324 31.8724L34.5709 36.3527H15.3117ZM40.559 24.5904L9.02116 30.4935L11.7355 33.0348L26.2981 31.2256C26.0395 31.0964 25.9967 30.9669 25.9967 30.7949C25.9967 30.6223 26.1258 30.45 26.3841 30.4071C26.5136 30.4071 34.4411 29.2437 35.0012 29.1574C35.2592 29.1139 35.906 28.9847 36.5952 28.6404C37.2845 28.3389 37.7152 27.994 37.9738 27.735C38.189 27.563 38.7923 26.9165 39.2236 26.4424C39.4681 26.1974 39.6983 25.9384 39.9129 25.6668C40.0855 25.4516 40.4733 24.9775 40.645 24.762C40.6888 24.6767 40.6453 24.5904 40.559 24.5904ZM45.5141 17.6972L6.09169 27.822L8.46136 30.0197L20.6112 27.6928C20.396 27.5637 20.2665 27.4777 20.2665 27.2622C20.2682 27.167 20.3039 27.0756 20.3671 27.0045C20.4303 26.9334 20.5169 26.8872 20.6112 26.8744L40.3438 23.0398C40.6025 22.9966 41.2918 22.8672 41.9379 22.4365C42.5843 22.0487 42.9293 21.6181 43.1448 21.4023C43.4028 21.1008 43.8769 20.4975 44.2219 20.0668C44.4799 19.7222 44.696 19.3776 44.8677 19.1192C45.0403 18.8609 45.4281 18.1713 45.6433 17.8698C45.6865 17.7832 45.6005 17.654 45.5141 17.6972Z" fill="#C23C40"/>
<path fill-rule="evenodd" clip-rule="evenodd" d="M40.301 6.23663C40.818 6.02115 43.4463 4.90089 44.0057 4.59908C44.6094 4.34077 46.3326 3.56515 46.979 3.26367C47.7111 2.96219 49.7793 1.9711 50.0808 1.84194C51.5457 1.15265 53.3556 0.291046 53.6999 0.075561C53.7862 0.0323976 53.9585 0.118724 53.9151 0.247882C53.6067 1.24239 53.2472 2.22029 52.838 3.17768C52.58 3.78097 52.1922 4.64258 51.8472 5.20271C51.4166 5.89232 50.9859 6.36579 50.6409 6.6676C49.9088 7.35722 49.3052 7.70187 48.6591 7.96051C48.2713 8.08967 47.4528 8.43431 46.8927 8.6498C46.7635 8.69296 44.5659 9.51141 44.0917 9.64057L5.22975 23.3844C4.32498 23.6859 3.29105 24.2889 3.29105 25.4523C3.29105 25.9699 3.59286 26.6592 4.19582 27.2187L14.0191 36.3527H9.45213C9.36613 36.0947 9.23664 35.7069 9.06432 35.4479C8.892 35.189 8.806 34.931 8.28871 34.4572C7.90123 34.0259 7.51343 33.6387 7.38394 33.5092L2.21363 28.3396C1.22286 27.3917 0.705566 26.1419 0.705566 25.022C0.705566 23.4708 1.56717 21.963 4.15233 20.9288L40.301 6.23663Z" fill="#C23C40"/>
<path fill-rule="evenodd" clip-rule="evenodd" d="M44.5659 11.4498C45.0828 11.2775 46.0743 10.9328 46.3322 10.8468C46.5909 10.7608 47.6248 10.373 47.7971 10.3299C48.4864 10.0284 49.1757 9.76972 49.9085 9.46824C49.9942 9.42508 50.1236 9.51141 50.0805 9.64057C49.9942 9.85605 49.5207 10.8037 49.3912 11.0191C49.0897 11.6224 48.7882 12.1826 48.4864 12.6564C48.1849 13.1305 47.7971 13.7766 47.5388 14.0784C47.1075 14.5954 46.7197 14.94 46.1168 15.371C45.3411 15.888 44.6519 16.0603 44.3504 16.1898L15.6995 23.8582C15.4844 23.9011 15.398 24.1597 15.398 24.2461C15.398 24.4187 15.5272 24.5904 15.6995 24.6767L5.53156 27.305L4.71312 26.5294C4.41164 26.2714 4.28215 25.8836 4.28215 25.5818C4.28215 24.849 4.84228 24.5047 5.74738 24.2032L44.5659 11.4498Z" fill="#C23C40"/>
</g>
<defs>
<clipPath id="clip0_1204_67">
<rect width="56" height="44" fill="white"/>
</clipPath>
</defs>
</svg>

<svg xmlns="http://www.w3.org/2000/svg" width="81.455" height="64" fill="none" viewBox="0 0 56 44"><g fill="#C23C40" fill-rule="evenodd" clip-path="url(#a)" clip-rule="evenodd"><path d="m7.255 38.335.818.086c.388.043.388.345.388.56v.991H4.67v-.99c0-.216.043-.518.43-.561l.819-.086v-.819H1.008v.819l.818.086c.345.043.388.345.388.56v3.188c0 .216-.043.518-.388.56l-.818.087v.819h4.911v-.819l-.818-.086c-.388-.043-.431-.344-.431-.56v-.948h3.791v.947c0 .216 0 .518-.387.56l-.819.087v.819h4.911v-.819l-.818-.086c-.345-.043-.388-.344-.388-.56V38.98c0-.215.043-.517.388-.56l.818-.086v-.819H7.255zm32.873-.819h-6.075v.819l.733.086c.258.043.43.13.43.517v3.231c0 .216-.042.518-.43.56l-.82.087v.818h6.162c2.197 0 4.007-.86 4.007-3.059 0-2.197-1.81-3.059-4.007-3.059m-.43 4.955H37.63V38.68h2.068c1.206 0 1.594.56 1.594 1.895 0 1.336-.388 1.896-1.594 1.896"/><path d="M54.519 42.73c-.388-.044-.518-.302-.646-.475l-2.844-4.351c-.215-.302-.345-.388-.646-.388H45.73v.819l1.077.13c.172 0 .387.215.215.516l-2.11 3.404c-.087.13-.173.302-.432.345l-.819.086v.818h3.921v-.818l-.646-.043c-.302-.043-.474-.259-.302-.474l.302-.518h3.792l.258.432c.258.344-.043.517-.345.517l-.689.086v.818h5.342v-.818zm-6.937-2.069 1.163-1.852 1.25 1.852zm-17.966-2.326.862.086c.344.043.387.345.387.56v3.06l-3.231-4.266c-.172-.216-.302-.258-.646-.258h-4.223v.818l.819.086c.388.044.43.345.43.56v3.189c0 .216-.042.517-.43.56l-.819.087v.818h3.92v-.818l-.818-.087c-.344-.043-.388-.344-.388-.56v-3.06l3.232 4.267c.173.215.301.258.646.258h2.973v-4.653c0-.215.043-.517.43-.56l.82-.087v-.819h-3.965zM17.466 37.3c-4.007 0-5.04 1.766-5.04 3.274 0 1.551 1.033 3.275 5.04 3.275s5.041-1.724 5.041-3.275c0-1.508-1.034-3.274-5.041-3.274m0 5.385c-1.551 0-2.197-.646-2.197-2.11 0-1.466.646-2.112 2.197-2.112s2.197.646 2.197 2.111-.646 2.111-2.197 2.111m-2.154-6.333-2.973-2.758 14.993-1.723 7.239 4.48zM40.559 24.59 9.021 30.494l2.714 2.54 14.563-1.808c-.258-.13-.301-.26-.301-.431 0-.173.129-.345.387-.388.13 0 8.057-1.163 8.617-1.25a5.8 5.8 0 0 0 1.594-.517c.69-.301 1.12-.646 1.379-.905.215-.172.818-.819 1.25-1.293q.366-.368.689-.775c.173-.215.56-.69.732-.905.044-.085 0-.172-.086-.172m4.955-6.893L6.092 27.822l2.37 2.198 12.15-2.327c-.216-.13-.345-.215-.345-.43a.4.4 0 0 1 .344-.389l19.733-3.834c.258-.043.948-.173 1.594-.604.646-.387.991-.818 1.207-1.034.258-.301.732-.905 1.077-1.335.258-.345.474-.69.646-.948s.56-.948.775-1.25c.044-.086-.043-.215-.129-.172"/><path d="M40.301 6.237c.517-.216 3.145-1.336 3.705-1.638.603-.258 2.327-1.034 2.973-1.335.732-.302 2.8-1.293 3.102-1.422C51.546 1.152 53.356.29 53.7.076c.086-.044.258.043.215.172a30 30 0 0 1-1.077 2.93c-.258.603-.646 1.465-.99 2.025-.431.69-.862 1.163-1.207 1.465-.732.69-1.336 1.034-1.982 1.293-.388.129-1.206.473-1.766.689-.13.043-2.327.861-2.801.99L5.23 23.385c-.905.302-1.939.905-1.939 2.068 0 .518.302 1.207.905 1.767l9.823 9.134H9.452c-.086-.258-.215-.646-.388-.905-.172-.259-.258-.517-.775-.99-.388-.432-.776-.82-.905-.949l-5.17-5.17c-.991-.947-1.508-2.197-1.508-3.317 0-1.551.861-3.059 3.446-4.093z"/><path d="M44.566 11.45c.517-.172 1.508-.517 1.766-.603.259-.086 1.293-.474 1.465-.517.69-.302 1.379-.56 2.111-.862.086-.043.216.043.172.173a21 21 0 0 1-.689 1.378 19 19 0 0 1-.905 1.637c-.301.474-.689 1.12-.947 1.422-.431.517-.82.862-1.422 1.293-.776.517-1.465.69-1.767.819L15.7 23.858c-.216.043-.302.302-.302.388 0 .173.13.344.302.43L5.532 27.306l-.819-.776a1.29 1.29 0 0 1-.43-.947c0-.733.56-1.077 1.464-1.379z"/></g><defs><clipPath id="a"><path fill="#fff" d="M0 0h56v44H0z"/></clipPath></defs></svg>
